X:177
T: AN SCHLOSSER HAT AN G'SELLEN G'HOT
N: Z0176
O: Europa, Mitteleuropa, Deutschland, Nuernberg
R: Schiffer -, Handwerker - Lied
M: 2/4
L: 1/8
K: G
D | GABc | edd
d | cBAd | B3
D | GABc | edd
d | cBAd | B3
G | AABB | ccd
d | cBAG | D3
D | GABc | edd
d | cBAd | G3

@@@ Tune index: 9935
